X:2
M:3/4
L:1/16
Q:"Largo"
%%continueall 1
%%maxshrink 0.72
%%staves {1 2} 3
K:Eb
V:1
z4B8-|B12-|B4A8-|A4G8-|GEFG ABce _dcBA|
V:2
GBed eBBA AGGF|FBdc dAAG GFFE|EGcB cGGF FEED|DFBA BFFE E_DDC|C2c4f2- fagf|
V:3
E,4G,4E,4|B,4B,,4B,4|C,4F,4A,4|B,,4E,4G,4|A,,12-|
V:1
f2=d2a2f2 bBc_d|c2A2F2e2- edcd|e8z4|dfb=a bffe eddc|cf=ag aeed dccB|Bdgf gddc cBB=A|
V:2
e=dcB cedfe4-|e=dfe dcBA f2A2|GFEF G=ABc BAGA|B4F8-|F12-|F4E8-|
V:3
A,,4F,4G,4|A,4B,4B,,4|E,4D,4C,4|B,,4D,4B,,4|F,4F,,4F,4|G,4C,4E,4|
V:1
=Acfe fccB B_AAG|G2g4c'2- c'edc|b=agf gbac'b4-|b=ac'b agfe c'2e2|dcBc d=efg fede|f2c2f2a2g2f2|
V:2
E4D8-|DB,CD EFGB AGFE|c2=A2e2c2 fFG_A|G2E2C2B2- B=AGA|B2F2B2_d2c2B2|AGFG =A=B=cd cBAB|
V:3
F,4B,,4D,4|E,12-|E,4C,4D,4|E,4F,4F,,4|B,,4_A,,4G,,4|F,,4E,,4D,,4|
V:1
edcd efga gfga|=BcdBG8-|G=Bdf edc_BA4-|Aceg fedcB4-|B_dfa gf=edc4-|c=egb agfad4-|
V:2
c2G2c2e2d2c2|d2G2d2f2e2d2|e4-efed egfe|f4-fgfe fagf|g4-gagf gbag|a4z_edc =BcdB|
V:3
C,,4B,,4A,,4|G,,4=B,,4G,,4|C,2=B,,2C,2C,,2 z2C,2|D,2C,2D,2D,,2 z2D,2|=E,2D,2E,2=E,,2 z2E,2|F,2=E,2F,2F,,2 z2F,2|
% (2)
V:1
d2c=B cde2- efga|_BcB=A Bcd2- defg|_ABAG ABc2- cdef|G12-|GcBA GFED CEGB|=ABAG FEDC B,DFA|
V:2
Gfed edc_BA4-|Aedc dcB_AG4-|G_dc=B c_BAGF4-|FGFE =DC=B,=A, G,B,DF|E12-|E4D8-|
V:3
_E,2G,2C2G,2F,2E,2|D,2F,2B,2F,2E,2D,2|C,2E,2A,2E,2D,2C,2|=B,,2D,2G,2F,2E,2D,2|C,2G,2C2_B,2=A,2G,2|F,2B,,2B,2=A,2G,2F,2|
V:1
G=AG^F G=EFG =ABcA|^FD=EF G=ABc d_e=fd|edcd e2c2=A2c'2|g^f=ed egf=ag4-|g^f=ag f=edc a2c2|B4-BcB=A B_dcB|
V:2
D4C8-|C4B,8-|B,G,=A,B, CDEG FEDC|=A2^F2c2A2 dD_E=F|E2C2=A,2G2- G^F=EF|G_EDC B,=A,G,=F,E,4-|
V:3
E,2=A,,2=A,2G,2^F,2=E,2|D,2G,,2G,2=F,2_E,2D,2|C,12-|C,4=A,,4B,,4|C,4D,4D,,4|G,2^F,2G,2G,,2 z2G,2|
V:1
c4-c_dc=B ce=dc|d4-dedc dfed|efed efgba4-|a4g8-|g4f8-|f4e8-|
V:2
E,G,B,_D CB,A,G,F,4-|F,=A,CE DCB,_A,G,4-|G,2G2- GFED CDEC|DEDC B,A,G,F, E,G,B,_D|C=DC=B, C=A,B,C DEFD|=B,G,=A,B, CDEF G_A_BG|
V:3
A,2G,2A,2A,,2 z2=A,2|B,2=A,2B,2B,,2 z2=B,2|C2=B,2C2C,2 z2C2|_B,2B,,2E,2D,2C,2B,,2|A,,2A,2D,2C,2=B,,2=A,,2|G,,2G,2C,2_B,,2_A,,2G,,2|
V:1
ecde fgac' bagf|edc=B f2d2 gG_A_B|A2F2D2c2- c=B=AB|cedfe8-|ecd=Bc8-|cde^f =agfe dc=Bc|=B12|]
V:2
AGFG A2F2D2c2-|c=B=AG AcBdc4-|c=Bdc B_AGF d2F2|EGF_AG8-|GEFDE8-|E2=A2c2A2 PE2DE|D12|]
V:3
F,,12-|F,,4D,4E,4|F,4G,4G,,4|C,4-C,E,D,F, E,G,C,E,|A,,4-A,,C,=B,,D, C,E,A,,C,|^F,,12|G,,12|]

